icon/ir/gamepad.svg

<svg viewBox="0 0 24 24" stroke-width="1.5" fill="none" xmlns="http://www.w3.org/2000/svg" height="1em" width="1em">
  <path d="M17.5 17.5C20 21 23.9486 18.4151 23 15C21.5753 9.87113 20.8001 7.01556 20.3969 5.50793C20.1597 4.62136 19.3562 4 18.4384 4L5.56155 4C4.64382 4 3.844 4.62481 3.62085 5.515C2.7815 8.86349 2.0326 11.8016 1.14415 15C0.195501 18.4151 4.14415 21 6.64415 17.5" stroke="currentColor" stroke-linecap="round" stroke-linejoin="round"/>
  <path d="M18 8.5L18.0111 8.51" stroke="currentColor" stroke-linecap="round" stroke-linejoin="round"/>
  <path d="M16.49 7L16.5011 7.01" stroke="currentColor" stroke-linecap="round" stroke-linejoin="round"/>
  <path d="M16.49 10L16.5011 10.01" stroke="currentColor" stroke-linecap="round" stroke-linejoin="round"/>
  <path d="M15 8.5L15.0111 8.51" stroke="currentColor" stroke-linecap="round" stroke-linejoin="round"/>
  <path d="M7 7V10" stroke="currentColor" stroke-linecap="round" stroke-linejoin="round"/>
  <path d="M5.5 8.5H8.5" stroke="currentColor" stroke-linecap="round" stroke-linejoin="round"/>
  <path d="M8 16C9.10457 16 10 15.1046 10 14C10 12.8954 9.10457 12 8 12C6.89543 12 6 12.8954 6 14C6 15.1046 6.89543 16 8 16Z" stroke="currentColor" stroke-linecap="round" stroke-linejoin="round"/>
  <path d="M16 16C17.1046 16 18 15.1046 18 14C18 12.8954 17.1046 12 16 12C14.8954 12 14 12.8954 14 14C14 15.1046 14.8954 16 16 16Z" stroke="currentColor" stroke-linecap="round" stroke-linejoin="round"/>
</svg>

<svg width="24" height="24" stroke-width="1.5" fill="none" xmlns="http://www.w3.org/2000/svg"><path d="M17.5 17.5c2.5 3.5 6.449.915 5.5-2.5-1.425-5.129-2.2-7.984-2.603-9.492A2.032 2.032 0 0 0 18.438 4H5.562c-.918 0-1.718.625-1.941 1.515C2.78 8.863 2.033 11.802 1.144 15c-.948 3.415 3 6 5.5 2.5M18 8.5l.011.01M16.49 7l.011.01M16.49 10l.011.01M15 8.5l.011.01M7 7v3M5.5 8.5h3" stroke="currentColor" stroke-linecap="round" stroke-linejoin="round"/><path d="M8 16a2 2 0 1 0 0-4 2 2 0 0 0 0 4ZM16 16a2 2 0 1 0 0-4 2 2 0 0 0 0 4Z" stroke="currentColor" stroke-linecap="round" stroke-linejoin="round"/></svg>
